X:12868
T:Pastourelle de la Chapelle Blanche
Z: Yves BELOTTEAU
M:6/8
L:1/8
Q:1/4=60
K:C
|Gc/2ef/2 e3/2d3/2|Gc/2de/2 d3/2c3/2|Gc/2ef/2 e3/2d3/2|Gc/2de/2 d3/2c3/2
|
f/2e/2d/2c3/2 ee/2ef/2|gg/2g3/2 dd/2de/2|ff/2f3/2 cc/2cd/2|ee/2e3/2 dc/2
de/2|
f/2e/2d/2c3/2 Gc/2ed/2|cB/2ce/2 e/2d/2e/2f/2e/2d/2|d/2c/2d/2ec/2 Gc/2ed/
2|cB/2ce/2 e/2d/2e/2f/2e/2d/2|
d/2c/2d/2ec/2 cc|
